X: 1
T: Dunkeld Parish
M: 6/8
L: 1/8
R: jig
K: Dmaj
|:DFA AFA|BdF FEE|DFA AFA|BdF EEE|
DFA AFA|BdF FEE|DFA AFA|Bdc d3:|
def edB|AFD FEE|def edB|AFD EEE|
def edB|AFD FEE|DFA AFA|Bdc d3:|
